icons/fill-new-other-printer.svg

<svg xmlns="http://www.w3.org/2000/svg" width="32px" height="32px" viewBox="0 0 32 32" version="1.1">
    <title>fill-new-other-printer</title>
    <g id="fill-new-other-printer" stroke-width="1" fill-rule="evenodd">
        <path d="M22,19 L22,29 C22,29.5522847 21.5522847,30 21,30 L11,30 C10.4477153,30 10,29.5522847 10,29 L10,19 L22,19 Z M27,9 C28.6568542,9 30,10.3431458 30,12 L30,23 C30,23.5522847 29.5522847,24 29,24 L24,24 L24,17 L8,17 L8,24 L3,24 C2.44771525,24 2,23.5522847 2,23 L2,12 C2,10.3431458 3.34314575,9 5,9 L27,9 Z M9,12 C8.44771525,12 8,12.4477153 8,13 C8,13.5522847 8.44771525,14 9,14 C9.55228475,14 10,13.5522847 10,13 C10,12.4477153 9.55228475,12 9,12 Z M13,12 C12.4477153,12 12,12.4477153 12,13 C12,13.5522847 12.4477153,14 13,14 C13.5522847,14 14,13.5522847 14,13 C14,12.4477153 13.5522847,12 13,12 Z M11,2 L21,2 C21.5522847,2 22,2.44771525 22,3 L22,7 L10,7 L10,3 C10,2.44771525 10.4477153,2 11,2 Z" id="&#24418;&#29366;" />
    </g>
</svg>

<svg xmlns="http://www.w3.org/2000/svg" viewBox="0 0 32 32"><path fill="currentColor" d="M22 19v10a1 1 0 0 1-1 1H11a1 1 0 0 1-1-1V19zm5-10a3 3 0 0 1 3 3v11a1 1 0 0 1-1 1h-5v-7H8v7H3a1 1 0 0 1-1-1V12a3 3 0 0 1 3-3zM9 12a1 1 0 1 0 0 2 1 1 0 0 0 0-2m4 0a1 1 0 1 0 0 2 1 1 0 0 0 0-2M11 2h10a1 1 0 0 1 1 1v4H10V3a1 1 0 0 1 1-1"/></svg>
